X: 28406
T: Mulhaire's
R: reel
M: 4/4
K: Dmajor
DE|FAFD FAFG|BGdG BDce|AceA cedc|defd AGFA|
FDFA FG|B3 d|B3 Acef|gAcd eddcd:|
efg|afda dfda|dfde dBde|defg fgab|efeb egea|
fdad fdad|fded BAFA|FGBd BAFE|FD3:|

